X: 7
T: Paddy Fahey's
R: reel
M: 4/4
L: 1/8
K: Gmaj
|:BG G2 BdcA|BGBd cA A2|BG G2 Bcdg|fgaf gedc|
BG G2 BdcA|BGBd cA A2|BG G2 Bcdg| fgaf g2 dc|
BG G2 BGcA|BGBd cAFA|BG G2 Bcde|fgaf gedc|
BG G2 BGcA|BGBd cAFA|BG G2 Bcdg|fgaf g3a||
|:bgaf dg g2|fdcA FGAd|bgaf gfdc|defa g3a|
bgaf dg g2|fdcA FGAc|BG G2 Bcdg|fgaf g3a|
bg g2 dgge|fdcA FGAz|bgfa gfdc|dggd g3a|
bg g2 dg g2|fdcA FGAc|BG G2 Bcdg|(3efg af g2gd||


Tune 492	Setting 13405

